build/img/phone-black.svg

<svg width="24" height="24" fill="none" viewBox="0 0 24 24" xmlns="http://www.w3.org/2000/svg">
<path fill-rule="evenodd" clip-rule="evenodd" d="M5.06262 3.26206C5.23041 3.09427 5.45799 3 5.69529 3H9.69806C10.037 3 10.3468 3.19148 10.4983 3.4946L11.7975 6.19681C11.8596 6.32105 11.892 6.45805 11.892 6.59695V7.39751C11.892 7.63481 11.7977 7.86239 11.6299 8.03018L9.69806 10C10.199 11.0721 12.4066 13.4803 14.2812 14.3019L16.2511 12.3701C16.4189 12.2023 16.6464 12.108 16.8837 12.108H17.6843C17.8232 12.108 17.9602 12.1404 18.0844 12.2025L20.5054 13.5017C20.8085 13.6532 21 13.963 21 14.3019V18.3047C21 18.542 20.9057 18.7696 20.7379 18.9374L19.9374 19.7379C19.7696 19.9057 19.542 20 19.3047 20C10.8522 20 4 13.1478 4 4.69529C4 4.45799 4.09427 4.23041 4.26206 4.06262L5.06262 3.26206Z" stroke="#1A1A1A" stroke-width="1.5" stroke-linecap="round" stroke-linejoin="round"/>
</svg>

<svg width="24" height="24" fill="none" viewBox="0 0 24 24" xmlns="http://www.w3.org/2000/svg"><path clip-rule="evenodd" d="M5.063 3.262A.895.895 0 015.695 3h4.003c.339 0 .649.191.8.495l1.3 2.702a.895.895 0 01.094.4v.8a.895.895 0 01-.262.633L9.698 10c.501 1.072 2.709 3.48 4.583 4.302l1.97-1.932a.895.895 0 01.633-.262h.8a.88.88 0 01.4.095l2.421 1.299a.895.895 0 01.495.8v4.003a.895.895 0 01-.262.632l-.8.8a.895.895 0 01-.633.263C10.852 20 4 13.148 4 4.695c0-.237.094-.465.262-.632l.8-.8z" stroke="#1A1A1A" stroke-width="1.5" stroke-linecap="round" stroke-linejoin="round"/></svg>
